Numix-Light/scalable/status/notifications-symbolic.svg

<?xml version="1.0" encoding="UTF-8" standalone="no"?>
<!-- Created with Inkscape (http://www.inkscape.org/) -->

<svg
   xmlns:dc="http://purl.org/dc/elements/1.1/"
   xmlns:cc="http://creativecommons.org/ns#"
   xmlns:rdf="http://www.w3.org/1999/02/22-rdf-syntax-ns#"
   xmlns:svg="http://www.w3.org/2000/svg"
   xmlns="http://www.w3.org/2000/svg"
   xmlns:sodipodi="http://sodipodi.sourceforge.net/DTD/sodipodi-0.dtd"
   xmlns:inkscape="http://www.inkscape.org/namespaces/inkscape"
   id="svg7384"
   style="enable-background:new"
   height="16"
   width="16"
   version="1.1"
   inkscape:version="0.91 r"
   sodipodi:docname="notifications-symbolic.svg">
  <sodipodi:namedview
     pagecolor="#ffffff"
     bordercolor="#666666"
     borderopacity="1"
     objecttolerance="10"
     gridtolerance="10"
     guidetolerance="10"
     inkscape:pageopacity="0"
     inkscape:pageshadow="2"
     inkscape:window-width="1920"
     inkscape:window-height="1056"
     id="namedview10"
     showgrid="true"
     inkscape:zoom="20.85965"
     inkscape:cx="2.1478808"
     inkscape:cy="0.52948153"
     inkscape:window-x="0"
     inkscape:window-y="24"
     inkscape:window-maximized="1"
     inkscape:current-layer="svg7384">
    <inkscape:grid
       type="xygrid"
       id="grid4211" />
  </sodipodi:namedview>
  <metadata
     id="metadata90">
    <rdf:RDF>
      <cc:Work
         rdf:about="">
        <dc:format>image/svg+xml</dc:format>
        <dc:type
           rdf:resource="http://purl.org/dc/dcmitype/StillImage" />
        <dc:title>Paper Symbolic Icon Theme</dc:title>
      </cc:Work>
    </rdf:RDF>
  </metadata>
  <title
     id="title8473">Paper Symbolic Icon Theme</title>
  <defs
     id="defs7386" />
  <path
     inkscape:connector-curvature="0"
     id="path3071"
     d="M 8,1 C 4.6232128,1 3,4 3,7.6 L 3,10 0.5,13 15.5,13 13,10 13,7.6 C 13,4 11.376787,1 8,1 Z M 4.992187,14 c 0.443211,1.158348 1.611924,2 3.0000002,2 1.388076,0 2.5567888,-0.841652 2.9999998,-2 z"
     style="opacity:1;fill:#353535;fill-opacity:1"
     sodipodi:nodetypes="zsccccszcscc" />
</svg>

<!-- Created with Inkscape (http://www.inkscape.org/) -->
<svg xmlns="http://www.w3.org/2000/svg" viewBox="0 0 16 16" style="enable-background:new">
 <path d="m 8 1 c -3.377 0 -5 3 -5 6.6 l 0 2.4 -2.5 3 15 0 -2.5 -3 0 -2.4 c 0 -3.6 -1.623 -6.6 -5 -6.6 m -3.01 13 c 0.443 1.158 1.612 2 3 2 1.388 0 2.557 -0.842 3 -2 z" style="fill:#353535;opacity:1;fill-opacity:1"/>
</svg>
